assets/azureiotcentralapplications/original.svg

<svg height="18" viewBox="0 0 18 18" width="18" xmlns="http://www.w3.org/2000/svg"><path d="m9 0-7.85 4.49v3l3.05 1.85v-1.8l-1.6-.92v-1.24l6.4-3.7 6.4 3.71v7.18l-6.4 3.7-7.85-4.49v1.68l7.85 4.54 7.85-4.49v-9z" fill="#a3a3a3"/><path d="m9 0-7.85 4.49 1.45.89 6.4-3.7 6.4 3.7 1.45-.89z" fill="#949494"/><path d="m13.25 6.54v4.92l-4.25 2.47v-4.92z" fill="#32bedd"/><path d="m13.25 6.54-4.25 2.47-4.25-2.47 4.25-2.47z" fill="#9cebff"/><path d="m9 9.01v4.92l-4.25-2.47v-4.92z" fill="#50e6ff"/><path d="m4.75 11.46 4.25-2.45v4.92z" fill="#9cebff"/><path d="m13.25 11.46-4.25-2.45v4.92z" fill="#50e6ff"/></svg>

<svg xmlns="http://www.w3.org/2000/svg" width="18" height="18" viewBox="0 0 18 18"><path fill="#a3a3a3" d="M9 0 1.15 4.49v3L4.2 9.34v-1.8l-1.6-.92V5.38L9 1.68l6.4 3.71v7.18L9 16.27l-7.85-4.49v1.68L9 18l7.85-4.49v-9z"/><path fill="#949494" d="M9 0 1.15 4.49l1.45.89L9 1.68l6.4 3.7 1.45-.89z"/><path fill="#32bedd" d="M13.25 6.54v4.92L9 13.93V9.01z"/><path fill="#9cebff" d="M13.25 6.54 9 9.01 4.75 6.54 9 4.07z"/><path fill="#50e6ff" d="M9 9.01v4.92l-4.25-2.47V6.54z"/><path fill="#9cebff" d="M4.75 11.46 9 9.01v4.92z"/><path fill="#50e6ff" d="M13.25 11.46 9 9.01v4.92z"/></svg>
